src/md-code-working.svg

<svg xmlns="http://www.w3.org/2000/svg" viewBox="0 0 512 512" xml:space="preserve"><path d="M190.4 354.1 91.9 256l98.4-98.1-30-29.9L32 256l128.4 128 30-29.9zm131.2 0L420 256l-98.4-98.1 30-29.9L480 256 351.6 384l-30-29.9z"/><path d="M155.6 276h40v-40h-40v40zm200.8-40h-40v40h40v-40zM236 276h40v-40h-40v40z"/></svg>

<?xml version="1.0" encoding="utf-8"?>
<!-- Generator: Adobe Illustrator 18.1.1, SVG Export Plug-In . SVG Version: 6.00 Build 0)  -->
<svg version="1.1" id="Layer_1" xmlns="http://www.w3.org/2000/svg" xmlns:xlink="http://www.w3.org/1999/xlink" x="0px" y="0px"
	 viewBox="0 0 512 512" enable-background="new 0 0 512 512" xml:space="preserve">
<g>
	<path d="M190.4,354.1L91.9,256l98.4-98.1l-30-29.9L32,256l128.4,128L190.4,354.1z M321.6,354.1l98.4-98.1l-98.4-98.1l30-29.9
		L480,256L351.6,384C351.6,384,321.6,354.1,321.6,354.1z"/>
	<path d="M155.6,276h40v-40h-40V276z M356.4,236h-40v40h40V236z M236,276h40v-40h-40V276z"/>
</g>
</svg>
